X:1
T:Title
T:Chirp 
T:Composed by C418 Arranged by North 
C:Composer
%%score { ( 1 3 ) | 2 }
L:1/8
Q:1/4=110
M:4/4
K:C
V:1 treble nm="鋼琴" snm="Pno."
V:3 treble 
V:2 bass 
V:1
 z8 | z8 | z8 | z8 |!mf! E8 | C4 G4 | F7 G | _A4 c2 A2 | G8 | E4 C4 | F7 G | _A4 c2 d2 | e6 g2 | %13
 e6 g2 | f6 e2 | f3/2g3/2_a- a4 | c'6 g2 | c'6 _b2 | a6 _a2 |!>(! f3/2c3/2_A-!>)! A2 G/=A/B/c/ | %20
"Cm2" _e4 z2 d_B |"G2" G4 z2 F_B, |"Bb2" d4 z2 c_B |"G2" G4 z2 F_B, |"Cm2" _e4 z2 d_B | %25
"G2" G4 z2 F_B, |"Bb2" dG_Bc- cd-dB |"G2" GDGA- A._B3/2.D3/2 | C2 z2 z4 | z8 | z8 | z8 | z8 | z8 | %34
 z8 | z8 |!mf! b3 a3 g2 | c2 z2 z4 | b3 a3 g2 | c3 d3 z2 | b3 a3 g2 | c2 z2 z4 | b3 a3 g2 | %43
 c3 d3 z2 | g2 z f z e z2 | f3/2e3/2d z2 c2 | d2 z G z2 B2 | z8 | g2 z f z e z2 | f3/2e3/2d z2 c2 | %50
 d2 z G z2 B2 | z8 | D3 F2 B3 | g3/2f3/2e- ecd z |"G" B3 A3/2G3/2 E2 | G2 z2 z4 | e3 A2 [Bd]3 | %57
 z8 |"G" B3 A3/2G3/2 E2 | G2 z2 z4 | g2 z f z e z2 | f3/2e3/2d z a3 | d2 z G z2 B2 | z8 | %64
 b3 a2 g3 | d3/2g3/2B- Bd3/2G3/2 | B3 G3 A2 | z2 G2 z2 D2 | z8 | z8 | B3 A3/2G3/2 E2 | G2 z2 z4 | %72
 G3 A2 B3/2c3/2 | c8 | B3 G3 D2 | z8 | z8 | z8 | z8 | z8 | z8 | z8 | z8 | z8 |] %84
V:2
!p! [G,,C,E,]2 [C,G,][D,E,]- [D,E,][C,G,][E,G,C][C,E,] | %1
 [G,,C,E,]2 [C,G,][D,E,]- [D,E,][C,G,][E,G,C][C,E,] | %2
 [G,,C,E,]2 [C,G,][D,E,]- [D,E,][C,G,][E,G,C][C,E,] | %3
 [G,,C,E,]2 [C,G,][D,E,]- [D,E,][C,G,][E,G,C][C,E,] | %4
 [G,,C,E,]2 [C,G,][D,E,]- [D,E,][C,G,][E,G,C][C,E,] | %5
 [G,,C,E,]2 [C,G,][D,E,]- [D,E,][C,G,][E,G,C][C,E,] | %6
 [C,F,A,]2 [F,C][G,A,]- [G,A,][F,C][A,CF][F,A,] | [C,F,]2 [F,_A,]G,- G,[C,F,][A,CF][C,F,] | %8
 [G,,C,E,]2 [C,G,][D,E,]- [D,E,][C,G,][E,G,C][C,E,] | %9
 [G,,C,E,]2 [C,G,][D,E,]- [D,E,][C,G,][E,G,C][C,E,] | %10
 [C,F,A,]2 [F,C][G,A,]- [G,A,][F,C][A,CF][F,A,] | [C,F,]2 [F,_A,]G,- G,[C,F,][A,CF][C,F,] | %12
 [G,,C,E,]2 [C,G,][D,E,]- [D,E,][C,G,][E,G,C][C,E,] | %13
 [G,,C,E,]2 [C,G,][D,E,]- [D,E,][C,G,][E,G,C][C,E,] | %14
 [C,F,A,]2 [F,C][G,A,]- [G,A,][F,C][A,CF][F,A,] | [C,F,]2 [F,_A,]G,- G,[C,F,][A,CF][C,F,] | %16
 [G,,C,E,]2 [C,G,][D,E,]- [D,E,][C,G,][E,G,C][C,E,] | %17
 [G,,C,E,]2 [C,G,][D,E,]- [D,E,][C,G,][E,G,C][C,E,] | %18
 [C,F,A,]2 [F,C][G,A,]- [G,A,][F,C][A,CF][F,A,] |!mp! [C,F,]2 [F,_A,]G,- G,[C,F,][A,CF][C,F,] | %20
 [G,,C,_E,]2 [C,G,][D,E,]- [D,E,][C,G,][E,G,C][C,E,] | [G,B,]D,[G,B,]A,- A,[G,B,][B,D][G,B,] | %22
 [F,,_B,,]D,[B,,_B,][C,D,F,B,]- [C,D,F,B,][F,B,][D,F,D][F,B,] | %23
 [G,B,]D,[G,B,]A,- A,[G,B,][B,D][G,B,] | [G,,C,_E,]2 [C,G,][D,E,]- [D,E,][C,G,][E,G,C][C,E,] | %25
 [G,B,]D,[G,B,]A,- A,[G,B,][B,D][G,B,] | %26
 [F,,_B,,]D,[B,,_B,][C,D,F,B,]- [C,D,F,B,][F,B,][D,F,D][F,B,] | %27
 [G,B,]D,[G,B,]A,- A,[G,B,][B,D][G,B,] | [G,,C,_E,]2 [C,G,][D,E,]- [D,E,][C,G,][E,G,C][C,E,] | %29
 [G,,C,_E,]2 [C,G,][D,E,]- [D,E,][C,G,][E,G,C][C,E,] | %30
 [G,,C,_E,]2 [C,G,][D,E,]- [D,E,][C,G,][E,G,C][C,E,] | %31
 [F,,_B,,]D,[B,,_B,][C,D,F,B,]- [C,D,F,B,][F,B,][D,F,D][F,B,] |!ped! GDGA z B z C | z8!ped-up! | %34
!ped! GDGA z dBC | z3 D z4!ped-up! |!ped! GDGA z B z C | z8!ped-up! |!ped! GDGA z dBC | %39
 z3 D z4!ped-up! |!ped! GDGA z B z C | z8!ped-up! |!ped! GDGA z dBC | z3 D z4!ped-up! | %44
!ped! GDGA z B z C | z8!ped-up! |!ped! GDGA z dBC | z3 D z4!ped-up! |!ped! GDGA z B z C | %49
 z8!ped-up! |!ped! GDGA z dBC | z3 D z4!ped-up! |"F"!ped! FCGA z B3 | c4 z e z d!ped-up! | %54
"G"!ped! GDGA z cBG | z3 E z4!ped-up! |!ped! FCGA z [Bd]3 | c4 z e3!ped-up! |!ped! GDGA z cBG | %59
 z3 E z4!ped-up! |!ped! GDGA z B z C | z8!ped-up! |!ped! GDGA z dBC | z3 D z4!ped-up! | %64
!ped! GDGA z [Bd]3 | c4 z4!ped-up! |!ped! GDGA z dBG | z3 E z4!ped-up! | %68
!8va(! z2 c[Af] z [Bda] z2 | [Acb]3/2g3/2 e2 c d2 | [eb]3 [da]3/2[cg]3/2 [Be]2!8va)! | z8 | %72
!ped! GDGA z B3/2c3/2 | d4 z e z2!ped-up! |!<(! GDGd- dcBG-!<)! | G3 E- E4 |!ped! GDGA z B z C | %77
 z8!ped-up! |!ped! GDGA z dBC | z3 D z4!ped-up! |!ped! GDGA z B3/2c3/2 | G4 F4!ped-up! | %82
!ped! GDGd3/2c3/2 B>G- | !fermata!G8!ped-up! |] %84
V:3
 x8 | x8 | x8 | x8 | x8 | x8 | x8 | x8 | x4 D4 | x8 | x8 | x8 | x8 | x8 | x8 | x8 | x8 | x8 | x8 | %19
 x8 | x8 | x8 | x8 | x8 | x8 | x8 | x8 | x8 | x8 | x8 | x8 | x8 | x8 | x8 | x8 | x8 | x8 | x8 | %38
 x8 | x8 | x8 | x8 | x8 | x8 | b3 a2 d'3 | c2 z2 z4 | b3 a3/2e3/2 g2 | c3 d3 z2 | b3 a2 d'3 | %49
 c2 z2 z4 | b3 a3/2e3/2 g2 | c3 d3 z2 | f3 a2 d'3 | c'2 z2 z4 | b3{/g} a3/2g3/2 e2 | %55
 [B,G]3 [G,E]3 z2 | g3 d'2 e'3/2f'3/2 | g'3 d'3 c'2 | b3{/g} a3/2g3/2 e2 | [B,G]3 [G,E]3 z2 | %60
 b3 a2 d'3 | c2 z2 z4 | b3 a3/2e3/2 g2 | c3 d3 z2 | b3 a2 d'3 | g2 z2 z4 | b3 a3/2e3/2 g2 | %67
 c3 d3 z2 | [dfb]8 | [fbd']8 | b3{/g} a3/2g3/2 e2 | [B,G]3 [G,E]3 z2 | g3 d'2 e'3/2f'3/2 | %73
 g'3 d'3 c'2 | b3{/g} g3 d2 | [B,G]3 [G,E]3 z2 | x8 | x8 | x8 | x8 | x8 | x8 | x8 | x8 |] %84

